X:1
T:Exultate Deo
T:Exultate Deo
T:Alessandro Scarlatti
C:Alessandro Scarlatti ( 1659 - 1725)
%%score [ 1 2 3 4 ]
L:1/8
Q:1/2=60
M:2/2
K:C
V:1 treble nm="Sopran"
V:2 treble nm="Alt"
V:3 treble-8 nm="Tenor"
V:4 bass nm="Bass"
V:1
 G2 G2 (c4- | c2 B2 c2) (dc) | B4 G4 | z8 | z4 G2 G2 | (c6 B2 | c2 G2 c2 d2 | e3 d e2 B2 | %8
w: Ex- sul- ta-|* * * te *|De- o,||ex- sul-|ta- *|||
 c2) G2 c2 e2 | (d2 c2 B2) c2 | (c2 B2 e4) | !breath!d4 c2 c2 | c4 B4 | (A2 G4 ^F2) | G4 z4 | %15
w: * te, ex- sul-|ta- * * te|De- * *|o ad- ju-|to- ri|no- * *|stro,|
 G2 G2 (c4- | c2 B2 c3 B | A2 c2 B3 A | ^G2) B2 A2 G2 | (A2 E2 A2 B2 | c3 B c2 B2 | c2) e2 d2 c2 | %22
w: ex- sul- ta-|||* te, ex- sul-|ta- * * *||* te, ex- sul-|
 (B2 A2 ^G2) A2 | (A2 ^G2 c4 | B4 c4) | !breath!d4 d2 d2 | e4 d4 | G2 G2 G4 | A4 G4 | %29
w: ta- * * te|De- * *||o ad- ju-|to- ri,|ad- ju- to-|ri no-|
 !breath!G2 c4 B2 | B2 B2 (c4- | c4 B4 | A4 G4- | G2 ^F2 B4 | A8) | B8 ||S z2 d2 d2 d2 | %37
w: stro, ad- ju-|to- ri no-|||||stro.|Al- le- lu-|
 (B3 A G4) | z2 c2 c2 c2 | (A3 B c4) | A2 A4 ^G2 | !breath!A2 e2 e2 e2 | A6 A2 | A2 A2 (^F2 ED | %44
w: ja, _ _|al- le- lu-|ja, _ _|al- le- lu-|ja, al- le- lu-|ja, al-|le- lu- ja, _ _|
 !breath!G6) c2 | c6 d2 | B2 (c4 B2) | (c2 BA B2 A2- | A2 G4) ^F2 | !breath!G2 d2 d2 d2 | %50
w: _ al-|le- lu-|ja, al- *|le- * * * *|* * lu-|ja, al- le- lu-|
 (B3 c d4) | z2 d2 d2 d2 | (edcB !breath!A2) c2 | c2 c2 A3 B | (c6 BA | G2 A2 G3) G | G4 z2 c2 | %57
w: ja, _ _|al- le- lu-|ja, _ _ _ _ al-|le- lu- ja, al-|le- * *|* * * lu-|ja, al-|
 c2 d2 e2 A2 | G6 G2 | !breath!G2 c4 B2 | (c4 d3) d | !fermata!e6 z2!fine! || %62
w: le- lu- ja, al-|le- lu-|ja, al- *|le- * lu-|ja.|
[M:3/2] z4 e2 e2 e2 e2 | e4 c4 e2 e2 | e4 d2 c2 B4 | !breath!c4 e2 e2 d2 d2 | e2 e2 (e4 d4) | %67
w: Ju- bi- la- te|De- o, ju- bi-|la- te * De-|o, ju- bi- la- te|De- o Ja- *|
 !breath!e4 e2 e2 d2 d2 | c2 c2 A4 !breath!c4 | A2 A2 c2 d2 e2 e2 | c2 c2 c4 !breath!c4 | %71
w: cob, ju- bi- la- te|De- o Ja- cob,|ju- bi- la- te, ju- bi-|la- te De- o,|
 c2 c2 e2 e2 e2 e2 | (d2 B2 e8) | !breath!d4 d4 e4 | (d2 c2 B4 d4 | c4 B4 A2 B2 | %76
w: ju- bi- la- te De- o|Ja- * *|cob, De- o|Ja- * * *||
 !breath!G6 A2 D2 B2 | c4 A8) | !breath!B4 B4 ^c4 | d12 | !breath!d4 d4 B4 | A12 | %82
w: ||cob, De- o|Ja-|cob, De- o|Ja-|
 !fermata!B12!D.S.! |] %83
w: cob.|
V:2
 z4 C2 C2 | (G3 F E2) F2 | (G2 D2 E4- | E2 D2 G2 FE | D4) !breath!C4 | C2 C2 G4 | %6
w: Ex- sul-|ta- * * te|De- * *||* o,|ex- sul- ta-|
 !breath!G4 G2 G2 | (G8- | G4 F2 E2 | F2 G2 F2) G2 | G8 | !breath!G4 E2 E2 | D6 G2 | E4 D4 | %14
w: te, ex- sul-|ta-||* * * te|De-|o ad- ju-|to- ri|no- stro,|
 D2 D2 (G3 F | E2 D2) G4- | !breath!G4 G4 | F8 | (E8- | E6 ^G2 | A3 ^G A3 G | %21
w: ex- sul- ta- *|* * te,|* ex-|sul-|ta-|||
 A2 E2 A2) !breath!G2 | F2 E2 D2 E2 | E8 | !breath!E2 E4 E2 | A2 A2 G4 | G4 F2 F2 | F6 E2 | %28
w: * * * te,|ex- sul- ta- te|De-|o, ex- sul-|ta- te De-|o, ad- ju-|to- ri|
 (F3 E D4) | !breath!E2 G4 G2 | G4 E4 | A2 A2 G4 | E8 | D8- | D8 | D8 || z8 | z2 D2 D2 D2 | %38
w: no- * *|stro, ad- ju-|to- ri,|ad- ju- to-|ri|no-||stro.||Al- le- lu-|
 (E3 F G4) | z2 F2 F2 F2 | E2 F2 E3 E | !breath!E4 E4 | E4 D4 | ^F6 B,2 | D4 C4 | !breath!E4 F4 | %46
w: ja, _ _|al- le- lu-|ja, al- le- lu-|ja, al-|le- lu-|ja, al-|le- lu-|ja, al-|
 (G2 FE D4 | E2 DC B,2 E2) | D4 !breath!D2 D2 | D2 D2 (B,3 C | D2) D2 D2 D2 | (B,3 C !breath!D4) | %52
w: le- * * *||lu- ja, al-|le- lu- ja, _|_ al- le- lu-|ja, _ _|
 G2 G2 F4 | F6 F2 | F2 F2 F4 | E2 F2 D4 | !breath!E2 !^!G2 !^!G2 !^!G2 | G6 (FE) | (D2 E2 D3) D | %59
w: al- le- lu-|ja, al-|le- lu- ja,|al- le- lu-|ja, al- le- lu-|ja, al- *|le- * * lu-|
 !breath!E2 G2 A2 G2 | G2 (FE) A2 G2 | !fermata!G6 z2 ||[M:3/2] E2 E2 A4 ^G4 | A2 A2 A2 E2 A2 A2 | %64
w: ja, al- le- lu-|ja, al- * le- lu-|ja.|Ju- bi- la- te|De- o, ju- bi- la- te|
 (A6 G2 F4) | G12 | G12 | !breath!G4 G4 G4 | E4 !breath!F4 G2 G2 | F2 F2 F2 F2 G2 G2 | A2 A2 A8 | %71
w: De- * *|o|Ja-|cob, De- o|Ja- cob, ju- bi-|la- te, ju- bi- la- te|De- o Ja-|
 !breath!G4 G2 G2 G2 G2 | G4 G4 G4 | !breath!G4 G4 G4 | (G6 D2 G2 ^F2 | !breath!G6 ^F2 E2 G2 | %76
w: cob, ju- bi- la- te|De- o Ja-|cob, De- o|Ja- * * *||
 E2 ^F2 G2 D2 G2 F2 | G8 ^F4) | !breath!G4 D4 G4 | (^F2 E2 D2 F2 G2 D2 | ^F2 G2 A4) !breath!D4 | %81
w: ||cob, De- o|Ja- * * * * *|* * * cob,|
 D12 | !fermata!D12 |] %83
w: Ja||
V:3
 z8 | z8 | G2 G2 (c4- | c2 B2 c2) (dc) | B4 c4 | z4 d2 d2 | (e3 d e2 B2 | c3 B c2 d2 | e3 d c2 B2 | %9
w: ||Ex- sul- ta-|* * * te *|De- o,|ex- sul-|ta- * * *|||
 A2 G2 d2) e2 | (d6 c2 | B4) A4- | !breath!A2 d4 d2 | c2 c2 A4 | !breath!B4 G2 G2 | (c2 B2 e4 | %16
w: * * * te|De- *|* o|_ ad- ju-|to- ri no-|stro, ex- sul-|ta- * *|
 d4 e3 d | c2 A2 d3 c | B2) !breath!^G2 A2 B2 | (c3 B c2) e2 | e4 e4 | (edcB A2) !breath!c2 | %22
w: ||* te, ex- sul-|ta- * * te,|ex- sul-|ta- * * * * te,|
 d2 A2 d2 c2 | (B6 A2) | !breath!^G4 A2 c2 | c2 (BA) B4 | !breath!c4 A2 A2 | d4 c4 | (c6 B2 | %29
w: ex- sul- ta- te|De- *|o, ad- ju-|to- ri * no-|stro, ad- ju-|to- ri|no- *|
 c2 e2 d4) | e2 e4 e2 | d6 d2 | (c6 B2 | A4 G4- | G4 ^F4) | G8 || z4 z2 d2 | d2 d2 (B3 A | %38
w: |stro, ad- ju-|to- ri|no- *|||stro.|Al-|le- lu- ja, _|
 G4) z2 c2 | c2 c2 (A3 B | c2) d2 B3 B | !breath!^c6 c2 | ^c2 d2 A4- | A2 d2 d2 d2 | (B3 A G4) | %45
w: _ al-|le- lu- ja, _|_ al- le- lu-|ja, al-|le- lu- ja,|_ al- le- lu-|ja, _ _|
 z2 e2 e2 d2 | e4 (A2 BA) | (G2 d4 cB | A2 B2) A4 | B4 z2 d2 | d2 d2 B3 c | (dc) (BA) B4 | %52
w: al- le- lu-|ja, al- * *|le- * * *|* * lu-|ja, al-|le- lu- ja, al-|le- * lu- * ja,|
 z2 c2 c2 c2 | (A3 B c4- | c2) A2 (c2 d2 | e2 c4) B2 | !breath!c2 !^!e2 !^!e2 !^!e2 | %57
w: al- le- lu-|ja, _ _|_ al- le- *|* * lu-|ja, al- le- lu-|
 e2 d2 (c2 dc | B2 c4) B2 | !breath!c2 e2 d3 d | e2 c2 c2 B2 | !fermata!c6 z2 || %62
w: ja, al- le- * *|* * lu-|ja, al- le- lu-|ja, al- le- lu-|ja,|
[M:3/2] c2 c2 c4 B4 | c2 c2 e2 e2 c2 c2 | (c2 B2 A2 c2 d4 | e4 c4) G4 | z4 c2 c2 B2 B2 | c4 E4 G4 | %68
w: Ju- bi- la- te|De- o, ju- bi- la- te|De- * * * *|* * o,|ju- bi- la- te|De- o Ja-|
 !breath!A4 c2 c2 c2 c2 | c2 c2 A4 c4 | z4 A2 A2 c2 c2 | e2 e2 (c8 | B2 d2 c2 G2 c4) | %73
w: cob, ju- bi- la- te|De- o Ja- cob,|ju- bi- la- te|ju- bi- la-||
 !breath!B4 (B4 c4 | B6 A2 G2 A2 | G2 A2 B4 c2 d2 | e6 dc B2 d2 | G2 e2 d8) | d4 z4 z4 | z4 d4 B4 | %80
w: te, Ja- *|||||cob,|De- o|
 (A2 G2 ^F4 G4- | G4 ^F2 E2 F4) | !fermata!G12 |] %83
w: Ja- * * *||cob.|
V:4
 z8 | z8 | z4 C,2 C,2 | (G,3 F, E,2 F,2) | (G,2 D,2) !breath!E,4 | (A,4 G,2) G,2 | (C3 B, C2 G,2 | %7
w: ||Ex- sul-|ta- * * te|De- * o,|ex- * sul-|ta- * * *|
 C,2 G,2 C,2 G,2 | C3 B, A,2 G,2 | F,2 E,2 D,2) C,2 | G,4 !breath!C,4 | G,2 G,2 (A,3 G, | %12
w: ||* * * te|De- o|ad- ju- to- *|
 ^F,4) G,4 | (C,4 D,4) | G,,4 z4 | z4 C,2 C,2 | (G,3 F, E,2 C,2 | F,3 E, D,2 B,,2 | %18
w: * ri|no- *|stro,|ex- sul-|ta- * * *||
 E,3 D, C,2 E,2 | A,3 ^G, A,2) !breath!E,2 | A,2 E,2 (A,,2 E,2 | A,3 G, F,2) E,2 | %22
w: |* * * te,|ex- sul- ta- *|* * * te,|
 D,2 C,2 B,,2 A,,2 | E,4 !breath!A,,4 | E,2 E,2 A,3 G, | ^F,4 !breath!G,4 | C,2 C,2 (D,3 C, | %27
w: ex- sul- ta- te|De- o,|ex- sul- ta- te|De- o|ad- ju- to- *|
 B,,4) C,4 | (F,4 G,4) | !breath!C,4 G,4- | G,2 G,2 (A,3 G, | ^F,4) G,4 | (C,8 | D,8- | D,8) | %35
w: * ri|no- *|stro, ad-|* ju- to- *|* ri|no-|||
 G,,8 || G,8 | G,4 G,4 | !breath!C,8 | F,4 (F,3 G, | A,2 D,2 E,2) E,2 | !breath!A,,4 A,4 | %42
w: stro.|Al-|le- lu-|ja,|al- le- *|* * * lu-|ja, al-|
 A,4 (^F,3 E,) | D,6 G,2 | G,4 (E,3 D,) | !breath!C,2 C2 A,2 B,2 | G,2 A,2 ^F,2 G,2 | %47
w: le- lu- *|ja, al-|le- lu- *|ja, al- le- lu-|ja, al- le- lu-|
 E,2 ^F,2 G,2 C,2 | D,2 G,,2 D,3 D, | G,,4 G,4 | G,4 G,4 | !breath!G,6 F,2 | !^!E,4 !^!F,4 | %53
w: ja, al- le- lu-|ja, al- le- lu-|ja, al-|le- lu-|ja, al-|le- lu-|
 !breath!!^!F,4 F,4 | A,6 B,2 | C2 F,2 G,3 G, | !breath!C,2 !^!C2 !^!C2 !^!C2 | C2 B,2 C2 F,2 | %58
w: ja, al-|le- lu-|ja, al- le- lu-|ja, al- le- lu-|ja, al- le- lu-|
 G,2 C,2 G,3 G, | !breath!C,2 C2 F,2 G,2 | (C,B,,) (A,,G,,) F,,2 G,,2 | !fermata!C,6 z2 || %62
w: ja, al- le- lu-|ja, al- le- lu-|ja, _ al- * le- lu-|ja.|
[M:3/2] A,2 A,2 A,4 E,4 | A,2 A,2 A,2 A,,2 A,2 A,2 | (A,2 G,2 F,2 E,2 D,4) | %65
w: Ju- bi- la- te|De- o, ju- bi- la- te|De- * * * *|
 !breath!C,4 C2 C2 B,2 B,2 | C4 E,4 G,4 | !breath!C,4 C2 C2 B,2 B,2 | C4 !breath!F,4 E,2 E,2 | %69
w: o, ju- bi- la- te|De- o Ja-|cob, ju- bi- la- te|De- o, ju- bi-|
 F,2 F,2 F,2 F,2 E,2 C,2 | F,2 F,2 F,2 F,2 A,2 F,2 | C2 !breath!C,2 C,2 C,2 E,2 C,2 | G,4 E,4 C,4 | %73
w: la- te, ju- bi- la- te|De- o, ju- bi- la- te|De- o, ju- bi- la- te|De- o Ja-|
 !breath!G,4 G,4 C,4 | (G,2 A,2 G,2 ^F,2 E,2 D,2 | !breath!E,6 D,2 C,2 B,,2 | %76
w: cob, De- o|Ja- * * * * *||
 C,2 D,2 E,2 ^F,2 G,2 D,2 | E,2 C,2 D,8) | !breath!G,4 G,4 E,4 | (D,2 C,2 B,,2 A,,2) G,,4 | D,12- | %81
w: ||cob, De- o|Ja- * * * cob,|Ja-|
 D,12 | G,,12 |] %83
w: ||

